X: 12
M:4/4
L:1/8
K:F
de|f3 g fg a2|FEFG F2 ED|f3 g f>g a2|GFGA G2 fg|
a4 a2 gf|g4 agfe|fgfe defe|dA =cA/2G/2 A3 A|
d2 dc defe|dedc A2 AB|c2 cA cded|dcAG A2 AG|

